material/.icons/material/phone-missed.svg

<svg xmlns="http://www.w3.org/2000/svg" viewBox="0 0 24 24"><path d="M23.71 16.67C20.66 13.77 16.54 12 12 12 7.46 12 3.34 13.77.29 16.67c-.18.18-.29.43-.29.71 0 .27.11.52.29.7l2.48 2.48c.18.18.43.3.73.3.25 0 .5-.11.68-.29.79-.74 1.68-1.36 2.66-1.85.33-.16.56-.5.56-.9v-3.1c1.45-.47 2.99-.72 4.6-.72 1.6 0 3.15.25 4.6.72v3.1c0 .4.23.74.56.9.98.49 1.87 1.11 2.66 1.85.18.18.43.29.68.29.3 0 .55-.12.73-.3l2.48-2.48a.99.99 0 00.29-.7c0-.28-.11-.53-.29-.71M6.5 5.5L12 11l7-7-1-1-6 6-4.5-4.5H11V3H5v6h1.5V5.5z"/></svg>

<?xml version="1.0" encoding="UTF-8"?><!DOCTYPE svg PUBLIC "-//W3C//DTD SVG 1.1//EN" "http://www.w3.org/Graphics/SVG/1.1/DTD/svg11.dtd"><svg xmlns="http://www.w3.org/2000/svg" xmlns:xlink="http://www.w3.org/1999/xlink" version="1.1" id="mdi-phone-missed" width="24" height="24" viewBox="0 0 24 24"><path d="M23.71,16.67C20.66,13.77 16.54,12 12,12C7.46,12 3.34,13.77 0.29,16.67C0.11,16.85 0,17.1 0,17.38C0,17.65 0.11,17.9 0.29,18.08L2.77,20.56C2.95,20.74 3.2,20.86 3.5,20.86C3.75,20.86 4,20.75 4.18,20.57C4.97,19.83 5.86,19.21 6.84,18.72C7.17,18.56 7.4,18.22 7.4,17.82V14.72C8.85,14.25 10.39,14 12,14C13.6,14 15.15,14.25 16.6,14.72V17.82C16.6,18.22 16.83,18.56 17.16,18.72C18.14,19.21 19.03,19.83 19.82,20.57C20,20.75 20.25,20.86 20.5,20.86C20.8,20.86 21.05,20.74 21.23,20.56L23.71,18.08C23.89,17.9 24,17.65 24,17.38C24,17.1 23.89,16.85 23.71,16.67M6.5,5.5L12,11L19,4L18,3L12,9L7.5,4.5H11V3H5V9H6.5V5.5Z" /></svg>
